icons/desktop/16/svg/pause-fill-16.svg

<svg width="16" height="16" viewBox="0 0 16 16" fill="none" xmlns="http://www.w3.org/2000/svg">
<path d="M4 2C4.17895 2 4.37686 2.00647 4.5918 2.02246C5.3808 2.08046 6 2.73048 6 3.52148V12.4775C6 13.2565 5.40786 13.9136 4.63086 13.9746C4.43089 13.9906 4.21996 14 4 14C3.82105 14 3.62314 13.9935 3.4082 13.9775C2.6192 13.9195 2 13.2695 2 12.4785V3.52246C2 2.74346 2.59214 2.08639 3.36914 2.02539C3.56911 2.0094 3.78004 2 4 2Z" fill="black"/>
<path d="M12 2C12.179 2 12.3769 2.00647 12.5918 2.02246C13.3808 2.08046 14 2.73048 14 3.52148V12.4775C14 13.2565 13.4079 13.9136 12.6309 13.9746C12.4309 13.9906 12.22 14 12 14C11.821 14 11.6231 13.9935 11.4082 13.9775C10.6192 13.9195 10 13.2695 10 12.4785V3.52246C10 2.74346 10.5921 2.08639 11.3691 2.02539C11.5691 2.0094 11.78 2 12 2Z" fill="black"/>
</svg>

<!-- This Source Code Form is subject to the terms of the Mozilla Public
   - License, v. 2.0. If a copy of the MPL was not distributed with this
   - file, You can obtain one at http://mozilla.org/MPL/2.0/. -->
<svg xmlns="http://www.w3.org/2000/svg" width="16" height="16" fill="context-fill" fill-opacity="context-fill-opacity" viewBox="0 0 16 16">
    <path d="M4 2q.269-.001.592.022A1.51 1.51 0 0 1 6 3.522v8.955c0 .78-.592 1.437-1.37 1.498a8 8 0 0 1-1.222.002A1.51 1.51 0 0 1 2 12.48V3.521c0-.779.592-1.436 1.37-1.497Q3.67 2.001 4 2M12 2q.269-.001.592.022A1.51 1.51 0 0 1 14 3.522v8.955c0 .78-.592 1.437-1.37 1.498a8 8 0 0 1-1.222.002A1.51 1.51 0 0 1 10 12.48V3.521c0-.779.592-1.436 1.37-1.497q.3-.024.63-.025" />
</svg>
